!!!OTL: 296. Die Ewigkeit der Freundschaft.
!!!COM: K. G. Koenig
!!!ODT: 1788
!!!ARE: Europa, Mitteleuropa, Deutschland
!!!SCT: B0296
!!!TXL: @@DE
!!!YEM: Copyright 1995, estate of Helmut Schaffrath.
**kern	**text
*ICvox	*
*Ivox	*
*M4/4	*
*met(c)	*
*clefG2	*
*k[f#]	*
*G:	*
!LO:TX:a:t=Sehr mäßig und ſanft.	!
{4dd	Nicht
=1	=1
4.b	blos
8cc	für
4dd	die-
4dd	-ſe
=2	=2
4.a	Un-
8g	-ter-
4cc}	-welt
{4cc	ſchlingt
=3	=3
4b	ſich
4dd	der
8eeL	Freundſchaft
8ddJ	.
8ccL	.
8bJ	.
=4	=4
(2b/	Band
4a)	.
8r}	.
{8d	wenn
=5	=5
4cc	einſt
4cc	der
4b	Vor-
4b	-hang
=6	=6
8eeL	nie-
8ff#J	.
8ggL	-der-
8eeJ	.
4.dd}	-fällt,
{8cc	wird
=7	=7
4b	erſt
8ccL	ihr
8aJ	.
4g	Werth
4f#	er-
=8	=8
2g	-kannt.
4r}	.
==	==
!!!AGN: Stimmungs - Lied, Freude, Freundschaft
!!!GTL: Lieder der Freude und Geseligkeit
!!!ONB: ESAC (Essen Associative Code) Database: BOEHME
!!!AMT: simple quadruple
!!!AIN: vox
!!!EED: Helmut Schaffrath
!!!EEV: 1.0
!!@@COMMENT:"Das Gedicht welches um 1783 bekannt wurde, wird in älteren Sammlungen dem Chriſtian
!!Georg Ludwig Meiſter ʒugeſchrieben. - Die Melodie von Karl Gottlob König ʒuerſt in deſſen
!!"Lieder und Melodien für Clavier und Geſang." Leipʒig, Breitkopf u. Härtel 1788. Das Lied war
!!ſonſt ein vielgeſungenes."
!!@@END:
!!!Text: Ch. G. L. Meister
!!!URL-scan: https://archive.org/details/BoehmeVtLieder1895/page/n247/mode/2up
!!!ENC: Anna Maria Matuszewska
!!!EEV: 2024/04/07
*-	*-
